X:1
T:RVW2/1/54 Shannon Side
T:RVW2/1/54 Shannon Side
T:Transcribed by Simon Furey and Lewis Jones
C:Transcribed by Simon Furey and Lewis Jones
L:1/8
Q:1/4=80
M:2/4
K:G
V:1 treble 
V:1
"^(Editorial suggestion)" d | dAAB | cBcd | gg af | g3 d | dAAB | cdgg | aa ge | d3 d | dAAA | %10
 cBcd | gg af | g3 |: g/a/ | bgfg | edBd |1 eBAF | G3 :|2 eBAf || g3 |] %20

